X: 2415
T: Ballad Of Persse O'Reilly
R: jig
M: 6/8
K: Amajor
EE|E3/2F/E D2C|DB,2 B,B,C|DDD DCB,|CA,2 A,A,B,|
=CCC C3/2C/D|B,2B, B,2A,|^G,G,A, B,=CB,|C3 C2C/C/|
=G,3/2A,/B, A,3|A,2A, =G,3/2A,/B,|A,6|A,6|

